X:1
T:Svingedans
T:(FMK Ske 29 bild 119)
T:efter "en gubbe från Sjöbotrakten"
R:Svingedans
O:Sjöbotrakten, Skåne
B:Folkmusikkommissionen
Z:Åke Persson 2012-02-28
M:3/4
L:1/8
Q:108
%%printtempo 0
%%MIDI ratio 2 1
K:C
|: GG c2 G2 | ee e2 cg | gg g2 eg | ab g4 :|
|: a2 abc'a | a2 gfef | d2 defd |1 dcdeeg :|2 de c4 |]

